X:167
T:Jessie's Hornpipe
K:G
M:C|
L:1/4
B/2c/2|"G"d g g B/2c/2|"G"B d d B/2A/2|"C"G G "D"A A|
"G"B/2A/2B/2c/2 B B/2c/2|"G"d g g B/2c/2|!
"G"B d d B/2A/2|"C"G G "D"A A|"G"G3 :||: B/2c/2|"G"d g "C"e c|"G"d g "C"e c|!
"G"d B G B|"D7"A/2G/2A/2B/2 a B/2c/2|"G"d g "C"e c|"G"d g "C"e c |
"G"B/2d/2B/2G/2 "D7"A/2c/2A/2F/2|"G"G3:||
% <A name="D1X168">
